lib/brands/icons/ms-yammer.svg

<svg xmlns="http://www.w3.org/2000/svg" fill="none" aria-hidden="true" viewBox="0 0 48 48"><g id="ms-yammer-Icon"><g id="Group"><path id="ellipse" fill="url(#paint0_linear_94_19010)" d="M36 24.5C36 30.4198 33.2353 35.7542 28.8126 39.5C13 24.5 13 24.5 13 24.5C27.3749 24.5 30.9686 24.5001 36 24.5Z"/><path id="ellipse_2" fill="url(#paint1_linear_94_19010)" d="M36 24.5C29.8905 24.5 24.8593 24.5 13 24.5C13 24.5 13 24.5 28.8126 8.5C33.2353 12.4956 36 18.1856 36 24.5Z"/><path id="ellipse_3" fill="url(#paint2_linear_94_19010)" d="M38.8334 31.5C39.5901 29.1436 40 26.6217 40 24C40 21.3783 39.5901 18.8564 38.8334 16.5L13 24.5L38.8334 31.5Z"/><path id="rectangle" fill="black" fill-opacity="0.3" d="M15 19.5C15 17.8431 16.3431 16.5 18 16.5H25C26.6569 16.5 28 17.8431 28 19.5V31.5C28 33.1569 26.6569 34.5 25 34.5H24.7426C23.947 34.5 23.1839 34.1839 22.6213 33.6213L21.5 32.5H18C16.3431 32.5 15 31.1569 15 29.5V19.5Z"/><rect id="rectangle_2" width="18" height="18" x="8" y="14.5" fill="url(#paint3_linear_94_19010)" rx="2"/><path id="Y" fill="white" d="M16.7766 22.4916L14.4191 18.5H12L15.8367 24.9426V28.5H18.1479V24.9426L22 18.5H19.5655L17.208 22.4916H16.7766Z"/></g></g><defs><linearGradient id="paint0_linear_94_19010" x1="22.703" x2="32.6227" y1="29.3724" y2="35.4097" gradientUnits="userSpaceOnUse"><stop stop-color="#0E51A3"/><stop offset="1" stop-color="#1464B6"/></linearGradient><linearGradient id="paint1_linear_94_19010" x1="20.9062" x2="32.9259" y1="20.6623" y2="13.7159" gradientUnits="userSpaceOnUse"><stop stop-color="#2292E2"/><stop offset="1" stop-color="#2294DB"/></linearGradient><linearGradient id="paint2_linear_94_19010" x1="20.56" x2="39.64" y1="24.3586" y2="24.3586" gradientUnits="userSpaceOnUse"><stop stop-color="#176FE0"/><stop offset="1" stop-color="#2F9FEF"/></linearGradient><linearGradient id="paint3_linear_94_19010" x1="8" x2="26" y1="23.5" y2="23.5" gradientUnits="userSpaceOnUse"><stop stop-color="#084C8A"/><stop offset="1" stop-color="#1572CB"/></linearGradient></defs></svg>

<svg xmlns="http://www.w3.org/2000/svg" fill="none" aria-hidden="true" viewBox="0 0 48 48"><path fill="url(#a)" d="M36 24.5c0 5.92-2.765 11.254-7.187 15L13 24.5h23Z"/><path fill="url(#b)" d="M36 24.5H13l15.813-16C33.235 12.496 36 18.186 36 24.5Z"/><path fill="url(#c)" d="M38.833 31.5A24.498 24.498 0 0 0 40 24c0-2.622-.41-5.144-1.167-7.5L13 24.5l25.833 7Z"/><path fill="#000" fill-opacity=".3" d="M15 19.5a3 3 0 0 1 3-3h7a3 3 0 0 1 3 3v12a3 3 0 0 1-3 3h-.257a3 3 0 0 1-2.122-.879L21.5 32.5H18a3 3 0 0 1-3-3v-10Z"/><rect width="18" height="18" x="8" y="14.5" fill="url(#d)" rx="2"/><path fill="#fff" d="M16.777 22.492 14.419 18.5H12l3.837 6.443V28.5h2.31v-3.557L22 18.5h-2.434l-2.358 3.992h-.431Z"/><defs><linearGradient id="a" x1="22.703" x2="32.623" y1="29.372" y2="35.41" gradientUnits="userSpaceOnUse"><stop stop-color="#0E51A3"/><stop offset="1" stop-color="#1464B6"/></linearGradient><linearGradient id="b" x1="20.906" x2="32.926" y1="20.662" y2="13.716" gradientUnits="userSpaceOnUse"><stop stop-color="#2292E2"/><stop offset="1" stop-color="#2294DB"/></linearGradient><linearGradient id="c" x1="20.56" x2="39.64" y1="24.359" y2="24.359" gradientUnits="userSpaceOnUse"><stop stop-color="#176FE0"/><stop offset="1" stop-color="#2F9FEF"/></linearGradient><linearGradient id="d" x1="8" x2="26" y1="23.5" y2="23.5" gradientUnits="userSpaceOnUse"><stop stop-color="#084C8A"/><stop offset="1" stop-color="#1572CB"/></linearGradient></defs></svg>
